!!!COM:	Bach, Johann Sebastian
!!!CDT:	1685/02/21/-1750/07/28/
!!!OTL@@DE:	Straf mich nicht in deinem Zorn
!!!SCT:	BWV 115/6
!!!PC#:	38
!!!AGN:	chorale
**harm	**kern	**kern	**kern	**kern
*	*ICvox	*ICvox	*ICvox	*ICvox
*	*Ibass	*Itenor	*Ialto	*Isoprn
*	*I"Bass	*I"Tenor	*I"Alto	*I"Soprano
*>[A,A,B]	*>[A,A,B]	*>[A,A,B]	*>[A,A,B]	*>[A,A,B]
*>norep[A,B]	*>norep[A,B]	*>norep[A,B]	*>norep[A,B]	*>norep[A,B]
*>A	*>A	*>A	*>A	*>A
*	*	*oclefC4	*oclefC3	*oclefC1
*	*clefF4	*clefGv2	*clefG2	*clefG2
*k[b-e-a-]	*k[b-e-a-]	*k[b-e-a-]	*k[b-e-a-]	*k[b-e-a-]
*E-:	*E-:	*E-:	*E-:	*E-:
*M4/4	*M4/4	*M4/4	*M4/4	*M4/4
*met(c)	*met(c)	*met(c)	*met(c)	*met(c)
*MM100	*MM100	*MM100	*MM100	*MM100
=1-	=1-	=1-	=1-	=1-
I	4E-	4B-	4e-	4g
IV6	4C	4c	4e-	4a-
V6	4D	4F	4f	4b-
iii6	4BB-	4G	4d	4b-
=2	=2	=2	=2	=2
vi	4C	4G	4e-	4e-
ii65	8AA-L	8cL	8e-L	8fL
V	8BB-J	8B-J	8dJ	8fJ
I;	2EE-;	2B-;	2e-;	2g;
=3	=3	=3	=3	=3
IV	4AA-	4A-	4e-	4cc
viio6	4FF	4A-	4f	4dd
I6	4GG	4B-	4e-	4ee-
I	4EE-	4B-	4e-	4g
=4	=4	=4	=4	=4
ii65	4AA-	4c	4e-	4f
V7	4BB-	4A-	4d	4f
I;	2EE-;	2G;	2B-;	2e-;
=5:|!	=5:|!	=5:|!	=5:|!	=5:|!
*>B	*>B	*>B	*>B	*>B
V6	4D	4B-	4f	4b-
V6	4D	4B-	4f	4f
I;	2E-;	2B-;	2e-;	2g;
=6	=6	=6	=6	=6
F:V6	4E	4G	4c	4cc
V65	4E	4G	4c	4b-
I;	2F;	2F;	2c;	2a;
=7	=7	=7	=7	=7
B-:I6	4D	4B-	4f	4b-
I	4BB-	4d	4f	4f
ii6	8E-XL	8cL	8e-L	8gL
V7	8F	8cJ	8e-J	8aJ
vi	4G	4B-	4d	4b-
=8	=8	=8	=8	=8
ii65	4E-	4G	4c	4b-
V	4F	4F	4c	4a
I;	2BB-;	2F;	2d;	2b-;
=9	=9	=9	=9	=9
E-:ii	4FF	4A-X	4f	4cc
V2	4AA-	4B-	4f	4dd
I6	4GG	4B-	4e-	4ee-
I64	4BB-	4B-	4e-	4g
=10	=10	=10	=10	=10
ii65	4AA-	4c	4e-	4f
V7	4BB-	4A-	4d	4f
I;	2EE-;	2G;	2B-;	2e-;
==	==	==	==	==
*-	*-	*-	*-	*-
!!!YOR1: 371 vierstimmige Choralges&auml;nge von Johann Sebastian Bach, 
!!!YOR2: 4th ed. by Alfred D&ouml;rffel (Leipzig: Breitkopf und H&auml;rtel, 
!!!YOR2: c.1875). 178 pp. Plate "V.A.10".  reprint: J.S. Bach, 371 Four-Part 
!!!YOR4: Chorales (New York: Associated Music Publishers, Inc., c.1940).
!!!SMS: B&H, 4th ed, Alfred D&ouml;rffel, c.1875, plate V.A.10
!!!EED:  Craig Stuart Sapp
!!!EEV:  2009/05/22
